icons/actions/16/path-mask-edit.svg

<?xml version="1.0" encoding="UTF-8" standalone="no"?>
<!-- Created with Inkscape (http://www.inkscape.org/) -->

<svg
   xmlns:dc="http://purl.org/dc/elements/1.1/"
   xmlns:cc="http://creativecommons.org/ns#"
   xmlns:rdf="http://www.w3.org/1999/02/22-rdf-syntax-ns#"
   xmlns:svg="http://www.w3.org/2000/svg"
   xmlns="http://www.w3.org/2000/svg"
   xmlns:xlink="http://www.w3.org/1999/xlink"
   xmlns:sodipodi="http://sodipodi.sourceforge.net/DTD/sodipodi-0.dtd"
   xmlns:inkscape="http://www.inkscape.org/namespaces/inkscape"
   width="16"
   height="16"
   id="svg3049"
   version="1.1"
   inkscape:version="0.91 r13725"
   sodipodi:docname="path-mask-edit.svg"
   inkscape:export-filename="/home/uri/.kde/share/icons/NITRUX-KDE/16x16/actions/view-right-new.png"
   inkscape:export-xdpi="30"
   inkscape:export-ydpi="30">
  <defs
     id="defs3051">
    <style
       type="text/css"
       id="current-color-scheme">
      .ColorScheme-Text {
        color:#4d4d4d;
      }
      .ColorScheme-Background {
        color:#eff0f1;
      }
      .ColorScheme-Highlight {
        color:#3daee9;
      }
      .ColorScheme-ViewText {
        color:#31363b;
      }
      .ColorScheme-ViewBackground {
        color:#fcfcfc;
      }
      .ColorScheme-ViewHover {
        color:#93cee9;
      }
      .ColorScheme-ViewFocus{
        color:#3daee9;
      }
      .ColorScheme-ButtonText {
        color:#31363b;
      }
      .ColorScheme-ButtonBackground {
        color:#eff0f1;
      }
      .ColorScheme-ButtonHover {
        color:#93cee9;
      }
      .ColorScheme-ButtonFocus{
        color:#3daee9;
      }
      </style>
    <linearGradient
       id="linearGradient4172-7"
       inkscape:collect="always">
      <stop
         id="stop4174-2"
         offset="0"
         style="stop-color:#1d99f3;stop-opacity:1" />
      <stop
         id="stop4176-0"
         offset="1"
         style="stop-color:#cae7fc;stop-opacity:1" />
    </linearGradient>
    <linearGradient
       inkscape:collect="always"
       xlink:href="#linearGradient4172-7"
       id="linearGradient4234"
       x1="425.71429"
       y1="543.79071"
       x2="433.71429"
       y2="535.79071"
       gradientUnits="userSpaceOnUse" />
    <linearGradient
       inkscape:collect="always"
       xlink:href="#linearGradient4172-7"
       id="linearGradient4154"
       x1="425.71429"
       y1="543.79071"
       x2="433.71429"
       y2="535.79071"
       gradientUnits="userSpaceOnUse" />
  </defs>
  <sodipodi:namedview
     id="base"
     pagecolor="#ffffff"
     bordercolor="#666666"
     borderopacity="1.0"
     inkscape:pageopacity="0.0"
     inkscape:pageshadow="2"
     inkscape:zoom="22.627417"
     inkscape:cx="3.0086041"
     inkscape:cy="2.5396374"
     inkscape:document-units="px"
     inkscape:current-layer="layer1"
     showgrid="true"
     fit-margin-top="0"
     fit-margin-left="0"
     fit-margin-right="0"
     fit-margin-bottom="0"
     inkscape:window-width="1920"
     inkscape:window-height="1017"
     inkscape:window-x="0"
     inkscape:window-y="0"
     inkscape:window-maximized="1"
     inkscape:showpageshadow="false"
     borderlayer="true"
     inkscape:snap-bbox="true"
     inkscape:object-nodes="true"
     inkscape:snap-global="true">
    <inkscape:grid
       type="xygrid"
       id="grid4085" />
    <sodipodi:guide
       position="2.0000044,14.00003"
       orientation="12,0"
       id="guide4075" />
    <sodipodi:guide
       position="2.0000044,2.0000296"
       orientation="0,12"
       id="guide4077" />
    <sodipodi:guide
       position="14.000004,2.0000296"
       orientation="-12,0"
       id="guide4079" />
    <sodipodi:guide
       position="14.000004,14.00003"
       orientation="0,-12"
       id="guide4081" />
  </sodipodi:namedview>
  <metadata
     id="metadata3054">
    <rdf:RDF>
      <cc:Work
         rdf:about="">
        <dc:format>image/svg+xml</dc:format>
        <dc:type
           rdf:resource="http://purl.org/dc/dcmitype/StillImage" />
        <dc:title />
      </cc:Work>
    </rdf:RDF>
  </metadata>
  <g
     inkscape:label="Capa 1"
     inkscape:groupmode="layer"
     id="layer1"
     transform="translate(-421.71429,-531.79074)">
    <path
       style="fill:#4d4d4d;fill-opacity:1;stroke:none;stroke-width:2;stroke-linecap:square;stroke-miterlimit:4;stroke-dasharray:none;stroke-opacity:1"
       d="M 2 3 L 2 13 L 14 13 L 14 3 L 2 3 z M 8 4 A 4 4 0 0 1 12 8 A 4 4 0 0 1 8 12 A 4 4 0 0 1 4 8 A 4 4 0 0 1 8 4 z "
       transform="translate(421.71429,531.79074)"
       id="rect4141" />
    <path
       style="fill:url(#linearGradient4234);fill-opacity:1;stroke:none;stroke-width:2;stroke-linecap:square;stroke-miterlimit:4;stroke-dasharray:none;stroke-opacity:1;opacity:1"
       id="path4226"
       r="4"
       cy="539.79071"
       cx="429.71429" />
    <path
       style="opacity:1;fill:url(#linearGradient4154);fill-opacity:1;stroke:none;stroke-width:2;stroke-linecap:square;stroke-miterlimit:4;stroke-dasharray:none;stroke-opacity:1"
       id="path4146"
       sodipodi:type="arc"
       sodipodi:cx="429.71429"
       sodipodi:cy="539.79071"
       sodipodi:rx="4"
       sodipodi:ry="4"
       sodipodi:start="0"
       sodipodi:end="6.2700955"
       sodipodi:open="true"
       d="m 433.71429,539.79071 a 4,4 0 0 1 -3.98691,3.99998 4,4 0 0 1 -4.013,-3.9738 4,4 0 0 1 3.96065,-4.02599 4,4 0 0 1 4.03892,3.94745" />
  </g>
</svg>

<svg xmlns="http://www.w3.org/2000/svg" viewBox="0 0 16 16">
  <defs id="defs3051">
    <style type="text/css" id="current-color-scheme">
      .ColorScheme-Text {
        color:#4d4d4d;
      }
      </style>
  </defs>
 <path 
     style="fill:currentColor;fill-opacity:1;stroke:none" 
     d="m2 3v10h12v-10zm6 1c2.209 0 4 1.791 4 4 0 2.209-1.791 4-4 4-2.209 0-4-1.791-4-4 0-2.209 1.791-4 4-4"
     class="ColorScheme-Text"/>
</svg>
